flaticon/productivity-and-development/browser-3.svg

<svg xmlns="http://www.w3.org/2000/svg" width="32" height="32" viewBox="0 0 24 24">
    <path d="M 21.59375 0 L 2.40625 0 C 1.078125 0 0 1.078125 0 2.40625 L 0 21.59375 C 0 22.921875 1.078125 24 2.40625 24 L 21.59375 24 C 22.921875 24 24 22.921875 24 21.59375 L 24 2.40625 C 24 1.078125 22.921875 0 21.59375 0 Z M 22.980469 21.59375 C 22.980469 22.359375 22.359375 22.980469 21.59375 22.980469 L 2.40625 22.980469 C 1.640625 22.980469 1.019531 22.359375 1.019531 21.59375 L 1.019531 2.40625 C 1.019531 1.640625 1.640625 1.019531 2.40625 1.019531 L 21.59375 1.019531 C 22.359375 1.019531 22.980469 1.640625 22.980469 2.40625 Z M 22.980469 21.59375"/>
    <path d="M18.296875 6.402344L12.855469 6.402344C12.324219 6.402344 11.84375 6.066406 11.660156 5.566406L11.492188 5.113281C11.160156 4.214844 10.296875 3.609375 9.335938 3.609375L5.703125 3.609375C4.4375 3.609375 3.40625 4.640625 3.40625 5.90625L3.40625 18.09375C3.40625 19.359375 4.4375 20.390625 5.703125 20.390625L18.296875 20.390625C19.5625 20.390625 20.59375 19.359375 20.59375 18.09375L20.59375 8.699219C20.59375 7.429688 19.5625 6.402344 18.296875 6.402344zM19.574219 18.09375C19.574219 18.796875 19 19.367188 18.296875 19.367188L5.703125 19.367188C5 19.367188 4.425781 18.796875 4.425781 18.09375L4.425781 5.90625C4.425781 5.203125 5 4.632812 5.703125 4.632812L9.335938 4.632812C9.871094 4.632812 10.351562 4.96875 10.535156 5.46875L10.703125 5.917969C11.03125 6.820312 11.898438 7.421875 12.855469 7.421875L18.296875 7.421875C19 7.421875 19.574219 7.996094 19.574219 8.699219zM19.203125 2.398438L20.226562 2.398438 20.226562 3.628906 19.203125 3.628906zM16.824219 2.398438L17.84375 2.398438 17.84375 3.628906 16.824219 3.628906zM14.445312 2.398438L15.464844 2.398438 15.464844 3.628906 14.445312 3.628906zM14.445312 2.398438"/>
    <path d="M 14.917969 11.230469 L 15.445312 10.707031 L 14.722656 9.984375 L 14.195312 10.507812 C 13.714844 10.144531 13.136719 9.898438 12.511719 9.808594 L 12.511719 9.066406 L 11.488281 9.066406 L 11.488281 9.808594 C 10.863281 9.898438 10.289062 10.144531 9.804688 10.507812 L 9.277344 9.980469 L 8.558594 10.703125 L 9.082031 11.230469 C 8.71875 11.714844 8.472656 12.289062 8.382812 12.914062 L 7.640625 12.914062 L 7.640625 13.9375 L 8.382812 13.9375 C 8.472656 14.5625 8.71875 15.140625 9.082031 15.621094 L 8.558594 16.148438 L 9.28125 16.871094 L 9.804688 16.34375 C 10.289062 16.707031 10.863281 16.957031 11.488281 17.042969 L 11.488281 17.785156 L 12.511719 17.785156 L 12.511719 17.042969 C 13.136719 16.957031 13.714844 16.707031 14.195312 16.34375 L 14.722656 16.871094 L 15.445312 16.148438 L 14.917969 15.621094 C 15.28125 15.140625 15.53125 14.5625 15.617188 13.9375 L 16.359375 13.9375 L 16.359375 12.914062 L 15.617188 12.914062 C 15.53125 12.289062 15.285156 11.714844 14.917969 11.230469 Z M 12 16.058594 C 10.550781 16.058594 9.367188 14.878906 9.367188 13.425781 C 9.367188 11.972656 10.550781 10.792969 12 10.792969 C 13.453125 10.792969 14.632812 11.972656 14.632812 13.425781 C 14.632812 14.878906 13.453125 16.058594 12 16.058594 Z M 12 16.058594"/>
</svg>

<svg xmlns="http://www.w3.org/2000/svg" width="32" height="32" viewBox="0 0 24 24">
    <path d="M21.594 0H2.406A2.407 2.407 0 0 0 0 2.406v19.188A2.407 2.407 0 0 0 2.406 24h19.188A2.407 2.407 0 0 0 24 21.594V2.406A2.407 2.407 0 0 0 21.594 0zm1.386 21.594c0 .765-.62 1.386-1.386 1.386H2.406a1.387 1.387 0 0 1-1.386-1.386V2.406c0-.765.62-1.386 1.386-1.386h19.188c.765 0 1.386.62 1.386 1.386zm0 0"/>
    <path d="M18.297 6.402h-5.442a1.279 1.279 0 0 1-1.195-.836l-.168-.453A2.306 2.306 0 0 0 9.336 3.61H5.703a2.3 2.3 0 0 0-2.297 2.297v12.188a2.3 2.3 0 0 0 2.297 2.297h12.594a2.3 2.3 0 0 0 2.297-2.297V8.699a2.298 2.298 0 0 0-2.297-2.297zm1.277 11.692c0 .703-.574 1.273-1.277 1.273H5.703c-.703 0-1.277-.57-1.277-1.273V5.906c0-.703.574-1.273 1.277-1.273h3.633a1.28 1.28 0 0 1 1.2.836l.167.449a2.296 2.296 0 0 0 2.152 1.504h5.442a1.28 1.28 0 0 1 1.277 1.277zm0 0M19.203 2.398h1.024v1.23h-1.024zm0 0M16.824 2.398h1.02v1.23h-1.02zm0 0M14.445 2.398h1.02v1.23h-1.02zm0 0"/>
    <path d="M14.918 11.23l.527-.523-.722-.723-.528.524a3.654 3.654 0 0 0-1.683-.7v-.742h-1.024v.743c-.625.09-1.199.336-1.683.699l-.528-.528-.718.723.523.527a3.672 3.672 0 0 0-.7 1.684h-.741v1.024h.742c.09.624.336 1.203.699 1.683l-.523.527.722.723.524-.527a3.63 3.63 0 0 0 1.683.699v.742h1.024v-.742a3.614 3.614 0 0 0 1.683-.7l.528.528.722-.723-.527-.527c.363-.48.613-1.059.7-1.684h.741v-1.023h-.742a3.59 3.59 0 0 0-.699-1.684zM12 16.06a2.637 2.637 0 0 1-2.633-2.633A2.637 2.637 0 0 1 12 10.793a2.634 2.634 0 0 1 0 5.266zm0 0"/>
</svg>
